X:1
T:Mornington, SM
T:Mornington, SM
T:Garrett Colley  Wellesley, 1760
T:Public Domain Courtesy of the Cyber Hymnal™
C:Garrett Colley  Wellesley, 1760
Z:Public Domain
Z:Courtesy of the Cyber Hymnal™
%%score ( 1 2 ) ( 3 4 )
L:1/8
Q:1/4=90
M:2/4
K:E
V:1 treble 
V:2 treble 
V:3 bass 
V:4 bass 
V:1
 [EB]2 [EB][FA] | [EG]2 [DF]2 | E2 (e>d) | [Ec]2 (Bc) | [EB]2 [EA]2 | [EG]4 | [EA]2 [EA][FA] | %7
 ([FA]2 [EG])[DA] | [EB]2 [Ec]2 | [DF]2 [DA]2 | [EG]2 (FE) | [B,E]2 [B,D]2 | [B,E]4 |] %13
V:2
 x4 | x4 | E2 E2 | x2 E2 | x4 | x4 | x4 | x4 | x4 | x4 | x2 C2 | x4 | x4 |] %13
V:3
 [E,G,]2 [G,B,][A,C] | B,2 (B,A,) | [E,G,]2 [G,B,]2 | A,2 E2 | [G,E]2 [F,B,]2 | [E,B,]4 | %6
 [C,A,]2 [C,C][D,B,] | [E,B,]3 [F,B,] | (B,E) z C | B,2 [F,B,]2 | [E,B,]2 [A,,A,]2 | %11
 [B,,G,]2 (F,A,) | [E,G,]4 |] %13
V:4
 x4 | B,2 B,,2 | x4 | x2 (G,A,) | x4 | x4 | x4 | x4 | G,2 A,2 | B,2 x2 | x4 | x2 B,,2 | x4 |] %13

